X:37
T:Where Lilies Bloom
R:polka
Z:id:hn-polka-37
M:2/4
L:1/8
K:D
DF/A/ BA|d>e dc|BA B/c/d|BA FD|DF/A/ BA|d>e dc|BA B/c/d|ed d2:|
|:fg/f/ ef/e/|de/d/ cA|BA B/c/d|BA FA|1 fg/f/ ef/e/|de/d/ cA|BA B/c/d|
ed d2:|2 DF/A/ BA|d>e dc|BA B/c/d|ed d2||
now open up note pad and past this in to it. now you need to make sure the save as type is set to all files. And when you name your file its needs to end in .abc now you can save it to C:\Documents and Settings\name\My Documents\The Lord of the Rings Online\Music.
